images/50947125.svg

<?xml version="1.0" encoding="UTF-8"?>
<svg xmlns="http://www.w3.org/2000/svg" xmlns:xlink="http://www.w3.org/1999/xlink" width="300pt" height="300pt" viewBox="0 0 300 300" version="1.1">
<defs>
<g>
<symbol overflow="visible" id="glyph0-0">
<path style="stroke:none;" d="M 0.453125 1.59375 L 0.453125 -6.34375 L 4.953125 -6.34375 L 4.953125 1.59375 Z M 0.953125 1.09375 L 4.453125 1.09375 L 4.453125 -5.84375 L 0.953125 -5.84375 Z M 0.953125 1.09375 "/>
</symbol>
<symbol overflow="visible" id="glyph0-1">
<path style="stroke:none;" d="M 3.546875 -5.953125 C 2.898438 -5.953125 2.382812 -5.710938 2 -5.234375 C 1.625 -4.753906 1.4375 -4.101562 1.4375 -3.28125 C 1.4375 -2.445312 1.625 -1.789062 2 -1.3125 C 2.382812 -0.832031 2.898438 -0.59375 3.546875 -0.59375 C 4.191406 -0.59375 4.703125 -0.832031 5.078125 -1.3125 C 5.453125 -1.789062 5.640625 -2.445312 5.640625 -3.28125 C 5.640625 -4.101562 5.453125 -4.753906 5.078125 -5.234375 C 4.703125 -5.710938 4.191406 -5.953125 3.546875 -5.953125 Z M 3.546875 -6.6875 C 4.460938 -6.6875 5.195312 -6.375 5.75 -5.75 C 6.300781 -5.132812 6.578125 -4.3125 6.578125 -3.28125 C 6.578125 -2.238281 6.300781 -1.410156 5.75 -0.796875 C 5.195312 -0.179688 4.460938 0.125 3.546875 0.125 C 2.617188 0.125 1.878906 -0.179688 1.328125 -0.796875 C 0.773438 -1.410156 0.5 -2.238281 0.5 -3.28125 C 0.5 -4.3125 0.773438 -5.132812 1.328125 -5.75 C 1.878906 -6.375 2.617188 -6.6875 3.546875 -6.6875 Z M 3.546875 -6.6875 "/>
</symbol>
<symbol overflow="visible" id="glyph0-2">
<path style="stroke:none;" d="M 0.890625 -6.5625 L 2.078125 -6.5625 L 4.984375 -1.078125 L 4.984375 -6.5625 L 5.84375 -6.5625 L 5.84375 0 L 4.65625 0 L 1.75 -5.484375 L 1.75 0 L 0.890625 0 Z M 0.890625 -6.5625 "/>
</symbol>
<symbol overflow="visible" id="glyph0-3">
<path style="stroke:none;" d="M 0.890625 -6.5625 L 1.765625 -6.5625 L 1.765625 -3.875 L 5 -3.875 L 5 -6.5625 L 5.890625 -6.5625 L 5.890625 0 L 5 0 L 5 -3.125 L 1.765625 -3.125 L 1.765625 0 L 0.890625 0 Z M 0.890625 -6.5625 "/>
</symbol>
</g>
</defs>
<g id="surface16001">
<rect x="0" y="0" width="300" height="300" style="fill:rgb(100%,100%,100%);fill-opacity:1;stroke:none;"/>
<path style="fill:none;stroke-width:1.2;stroke-linecap:butt;stroke-linejoin:miter;stroke:rgb(100%,0%,0%);stroke-opacity:1;stroke-miterlimit:10;" d="M 201.410156 140.863281 L 208.039062 146.671875 "/>
<path style="fill:none;stroke-width:1.2;stroke-linecap:butt;stroke-linejoin:miter;stroke:rgb(0%,0%,0%);stroke-opacity:1;stroke-miterlimit:10;" d="M 208.039062 146.671875 L 214.667969 152.484375 "/>
<path style="fill:none;stroke-width:1.2;stroke-linecap:butt;stroke-linejoin:miter;stroke:rgb(100%,0%,0%);stroke-opacity:1;stroke-miterlimit:10;" d="M 201.410156 140.863281 L 193.0625 143.699219 "/>
<path style="fill:none;stroke-width:1.2;stroke-linecap:butt;stroke-linejoin:miter;stroke:rgb(0%,0%,0%);stroke-opacity:1;stroke-miterlimit:10;" d="M 193.0625 143.699219 L 184.714844 146.539062 "/>
<path style=" stroke:none;fill-rule:nonzero;fill:rgb(100%,100%,100%);fill-opacity:1;" d="M 197.410156 135.363281 L 205.410156 135.363281 L 205.410156 146.363281 L 197.410156 146.363281 Z M 197.410156 135.363281 "/>
<g style="fill:rgb(100%,0%,0%);fill-opacity:1;">
  <use xlink:href="#glyph0-1" x="197.410156" y="144.026367"/>
</g>
<path style="fill:none;stroke-width:1.2;stroke-linecap:butt;stroke-linejoin:miter;stroke:rgb(0%,0%,0%);stroke-opacity:1;stroke-miterlimit:10;" d="M 214.667969 152.484375 L 231.363281 146.808594 "/>
<path style="fill:none;stroke-width:1.2;stroke-linecap:butt;stroke-linejoin:miter;stroke:rgb(0%,0%,0%);stroke-opacity:1;stroke-miterlimit:10;" d="M 231.363281 146.808594 L 237.992188 152.617188 "/>
<path style="fill:none;stroke-width:1.2;stroke-linecap:butt;stroke-linejoin:miter;stroke:rgb(0%,0%,100%);stroke-opacity:1;stroke-miterlimit:10;" d="M 237.992188 152.617188 L 244.625 158.429688 "/>
<path style="fill:none;stroke-width:1.2;stroke-linecap:butt;stroke-linejoin:miter;stroke:rgb(0%,0%,0%);stroke-opacity:1;stroke-miterlimit:10;" d="M 235.421875 144.851562 L 240.726562 149.5 "/>
<path style="fill:none;stroke-width:1.2;stroke-linecap:butt;stroke-linejoin:miter;stroke:rgb(0%,0%,100%);stroke-opacity:1;stroke-miterlimit:10;" d="M 240.726562 149.5 L 246.03125 154.144531 "/>
<path style="fill:none;stroke-width:1.2;stroke-linecap:butt;stroke-linejoin:miter;stroke:rgb(0%,0%,0%);stroke-opacity:1;stroke-miterlimit:10;" d="M 234.796875 129.515625 L 231.363281 146.808594 "/>
<path style="fill:none;stroke-width:1.2;stroke-linecap:butt;stroke-linejoin:miter;stroke:rgb(0%,0%,100%);stroke-opacity:1;stroke-miterlimit:10;" d="M 244.625 158.429688 L 252.972656 155.589844 "/>
<path style="fill:none;stroke-width:1.2;stroke-linecap:butt;stroke-linejoin:miter;stroke:rgb(0%,0%,0%);stroke-opacity:1;stroke-miterlimit:10;" d="M 252.972656 155.589844 L 261.316406 152.753906 "/>
<path style=" stroke:none;fill-rule:nonzero;fill:rgb(100%,100%,100%);fill-opacity:1;" d="M 241.625 152.929688 L 248.625 152.929688 L 248.625 163.929688 L 241.625 163.929688 Z M 241.625 152.929688 "/>
<g style="fill:rgb(0%,0%,100%);fill-opacity:1;">
  <use xlink:href="#glyph0-2" x="241.625" y="161.592773"/>
</g>
<path style="fill:none;stroke-width:1.2;stroke-linecap:butt;stroke-linejoin:miter;stroke:rgb(0%,0%,0%);stroke-opacity:1;stroke-miterlimit:10;" d="M 261.316406 152.753906 L 264.75 135.460938 "/>
<path style="fill:none;stroke-width:1.2;stroke-linecap:butt;stroke-linejoin:miter;stroke:rgb(0%,0%,0%);stroke-opacity:1;stroke-miterlimit:10;" d="M 257.589844 150.21875 L 260.335938 136.382812 "/>
<path style="fill:none;stroke-width:1.2;stroke-linecap:butt;stroke-linejoin:miter;stroke:rgb(0%,0%,0%);stroke-opacity:1;stroke-miterlimit:10;" d="M 264.75 135.460938 L 251.488281 123.839844 "/>
<path style="fill:none;stroke-width:1.2;stroke-linecap:butt;stroke-linejoin:miter;stroke:rgb(0%,0%,0%);stroke-opacity:1;stroke-miterlimit:10;" d="M 251.488281 123.839844 L 234.796875 129.515625 "/>
<path style="fill:none;stroke-width:1.2;stroke-linecap:butt;stroke-linejoin:miter;stroke:rgb(0%,0%,0%);stroke-opacity:1;stroke-miterlimit:10;" d="M 251.15625 128.335938 L 237.800781 132.875 "/>
<path style="fill:none;stroke-width:1.2;stroke-linecap:butt;stroke-linejoin:miter;stroke:rgb(0%,0%,0%);stroke-opacity:1;stroke-miterlimit:10;" d="M 184.714844 146.539062 L 171.453125 134.917969 "/>
<path style="fill:none;stroke-width:1.2;stroke-linecap:butt;stroke-linejoin:miter;stroke:rgb(0%,0%,0%);stroke-opacity:1;stroke-miterlimit:10;" d="M 180.65625 148.496094 L 170.046875 139.199219 "/>
<path style="fill:none;stroke-width:1.2;stroke-linecap:butt;stroke-linejoin:miter;stroke:rgb(0%,0%,0%);stroke-opacity:1;stroke-miterlimit:10;" d="M 181.28125 163.832031 L 184.714844 146.539062 "/>
<path style="fill:none;stroke-width:1.2;stroke-linecap:butt;stroke-linejoin:miter;stroke:rgb(0%,0%,0%);stroke-opacity:1;stroke-miterlimit:10;" d="M 171.453125 134.917969 L 154.761719 140.59375 "/>
<path style="fill:none;stroke-width:1.2;stroke-linecap:butt;stroke-linejoin:miter;stroke:rgb(0%,0%,0%);stroke-opacity:1;stroke-miterlimit:10;" d="M 154.761719 140.59375 L 151.328125 157.886719 "/>
<path style="fill:none;stroke-width:1.2;stroke-linecap:butt;stroke-linejoin:miter;stroke:rgb(0%,0%,0%);stroke-opacity:1;stroke-miterlimit:10;" d="M 158.488281 143.128906 L 155.742188 156.964844 "/>
<path style="fill:none;stroke-width:1.2;stroke-linecap:butt;stroke-linejoin:miter;stroke:rgb(0%,0%,0%);stroke-opacity:1;stroke-miterlimit:10;" d="M 151.328125 157.886719 L 164.589844 169.507812 "/>
<path style="fill:none;stroke-width:1.2;stroke-linecap:butt;stroke-linejoin:miter;stroke:rgb(0%,0%,0%);stroke-opacity:1;stroke-miterlimit:10;" d="M 151.328125 157.886719 L 134.636719 163.5625 "/>
<path style="fill:none;stroke-width:1.2;stroke-linecap:butt;stroke-linejoin:miter;stroke:rgb(0%,0%,0%);stroke-opacity:1;stroke-miterlimit:10;" d="M 164.589844 169.507812 L 181.28125 163.832031 "/>
<path style="fill:none;stroke-width:1.2;stroke-linecap:butt;stroke-linejoin:miter;stroke:rgb(0%,0%,0%);stroke-opacity:1;stroke-miterlimit:10;" d="M 164.921875 165.011719 L 178.277344 160.472656 "/>
<path style="fill:none;stroke-width:1.2;stroke-linecap:butt;stroke-linejoin:miter;stroke:rgb(0%,0%,0%);stroke-opacity:1;stroke-miterlimit:10;" d="M 132.601562 163.15625 L 130.882812 171.804688 "/>
<path style="fill:none;stroke-width:1.2;stroke-linecap:butt;stroke-linejoin:miter;stroke:rgb(100%,0%,0%);stroke-opacity:1;stroke-miterlimit:10;" d="M 130.882812 171.804688 L 129.167969 180.449219 "/>
<path style="fill:none;stroke-width:1.2;stroke-linecap:butt;stroke-linejoin:miter;stroke:rgb(0%,0%,0%);stroke-opacity:1;stroke-miterlimit:10;" d="M 136.671875 163.964844 L 134.953125 172.613281 "/>
<path style="fill:none;stroke-width:1.2;stroke-linecap:butt;stroke-linejoin:miter;stroke:rgb(100%,0%,0%);stroke-opacity:1;stroke-miterlimit:10;" d="M 134.953125 172.613281 L 133.238281 181.257812 "/>
<path style="fill:none;stroke-width:1.2;stroke-linecap:butt;stroke-linejoin:miter;stroke:rgb(0%,0%,0%);stroke-opacity:1;stroke-miterlimit:10;" d="M 134.636719 163.5625 L 128.003906 157.75 "/>
<path style="fill:none;stroke-width:1.2;stroke-linecap:butt;stroke-linejoin:miter;stroke:rgb(0%,0%,100%);stroke-opacity:1;stroke-miterlimit:10;" d="M 128.003906 157.75 L 121.375 151.941406 "/>
<path style=" stroke:none;fill-rule:nonzero;fill:rgb(100%,100%,100%);fill-opacity:1;" d="M 127.203125 175.355469 L 135.203125 175.355469 L 135.203125 186.355469 L 127.203125 186.355469 Z M 127.203125 175.355469 "/>
<g style="fill:rgb(100%,0%,0%);fill-opacity:1;">
  <use xlink:href="#glyph0-1" x="127.203125" y="184.018555"/>
</g>
<path style="fill:none;stroke-width:1.2;stroke-linecap:butt;stroke-linejoin:miter;stroke:rgb(0%,0%,100%);stroke-opacity:1;stroke-miterlimit:10;" d="M 121.375 151.941406 L 113.027344 154.777344 "/>
<path style="fill:none;stroke-width:1.2;stroke-linecap:butt;stroke-linejoin:miter;stroke:rgb(0%,0%,0%);stroke-opacity:1;stroke-miterlimit:10;" d="M 113.027344 154.777344 L 104.679688 157.617188 "/>
<path style=" stroke:none;fill-rule:nonzero;fill:rgb(100%,100%,100%);fill-opacity:1;" d="M 114.375 146.441406 L 128.375 146.441406 L 128.375 157.441406 L 114.375 157.441406 Z M 114.375 146.441406 "/>
<g style="fill:rgb(0%,0%,100%);fill-opacity:1;">
  <use xlink:href="#glyph0-2" x="114.375" y="155.104492"/>
  <use xlink:href="#glyph0-3" x="121.352539" y="155.104492"/>
</g>
<path style="fill:none;stroke-width:1.2;stroke-linecap:butt;stroke-linejoin:miter;stroke:rgb(0%,0%,0%);stroke-opacity:1;stroke-miterlimit:10;" d="M 104.679688 157.617188 L 91.421875 145.996094 "/>
<path style="fill:none;stroke-width:1.2;stroke-linecap:butt;stroke-linejoin:miter;stroke:rgb(0%,0%,0%);stroke-opacity:1;stroke-miterlimit:10;" d="M 100.621094 159.574219 L 90.011719 150.277344 "/>
<path style="fill:none;stroke-width:1.2;stroke-linecap:butt;stroke-linejoin:miter;stroke:rgb(0%,0%,0%);stroke-opacity:1;stroke-miterlimit:10;" d="M 101.25 174.910156 L 104.679688 157.617188 "/>
<path style="fill:none;stroke-width:1.2;stroke-linecap:butt;stroke-linejoin:miter;stroke:rgb(0%,0%,0%);stroke-opacity:1;stroke-miterlimit:10;" d="M 91.421875 145.996094 L 74.726562 151.667969 "/>
<path style="fill:none;stroke-width:1.2;stroke-linecap:butt;stroke-linejoin:miter;stroke:rgb(0%,0%,0%);stroke-opacity:1;stroke-miterlimit:10;" d="M 74.726562 151.667969 L 71.292969 168.964844 "/>
<path style="fill:none;stroke-width:1.2;stroke-linecap:butt;stroke-linejoin:miter;stroke:rgb(0%,0%,0%);stroke-opacity:1;stroke-miterlimit:10;" d="M 78.453125 154.207031 L 75.707031 168.042969 "/>
<path style="fill:none;stroke-width:1.2;stroke-linecap:butt;stroke-linejoin:miter;stroke:rgb(0%,0%,0%);stroke-opacity:1;stroke-miterlimit:10;" d="M 74.726562 151.667969 L 61.464844 140.050781 "/>
<path style="fill:none;stroke-width:1.2;stroke-linecap:butt;stroke-linejoin:miter;stroke:rgb(0%,0%,0%);stroke-opacity:1;stroke-miterlimit:10;" d="M 71.292969 168.964844 L 84.554688 180.582031 "/>
<path style="fill:none;stroke-width:1.2;stroke-linecap:butt;stroke-linejoin:miter;stroke:rgb(0%,0%,0%);stroke-opacity:1;stroke-miterlimit:10;" d="M 84.554688 180.582031 L 101.25 174.910156 "/>
<path style="fill:none;stroke-width:1.2;stroke-linecap:butt;stroke-linejoin:miter;stroke:rgb(0%,0%,0%);stroke-opacity:1;stroke-miterlimit:10;" d="M 84.890625 176.089844 L 98.242188 171.550781 "/>
<path style="fill:none;stroke-width:1.2;stroke-linecap:butt;stroke-linejoin:miter;stroke:rgb(0%,0%,0%);stroke-opacity:1;stroke-miterlimit:10;" d="M 101.25 174.910156 L 114.507812 186.527344 "/>
<path style="fill:none;stroke-width:1.2;stroke-linecap:butt;stroke-linejoin:miter;stroke:rgb(0%,0%,0%);stroke-opacity:1;stroke-miterlimit:10;" d="M 61.464844 140.050781 L 52.867188 142 "/>
<path style="fill:none;stroke-width:1.2;stroke-linecap:butt;stroke-linejoin:miter;stroke:rgb(0%,0%,100%);stroke-opacity:1;stroke-miterlimit:10;" d="M 52.867188 142 L 44.269531 143.949219 "/>
<path style="fill:none;stroke-width:1.2;stroke-linecap:butt;stroke-linejoin:miter;stroke:rgb(0%,0%,0%);stroke-opacity:1;stroke-miterlimit:10;" d="M 58.828125 136.394531 L 51.953125 137.953125 "/>
<path style="fill:none;stroke-width:1.2;stroke-linecap:butt;stroke-linejoin:miter;stroke:rgb(0%,0%,100%);stroke-opacity:1;stroke-miterlimit:10;" d="M 51.953125 137.953125 L 45.074219 139.511719 "/>
<path style="fill:none;stroke-width:1.2;stroke-linecap:butt;stroke-linejoin:miter;stroke:rgb(0%,0%,100%);stroke-opacity:1;stroke-miterlimit:10;" d="M 63.070312 122.492188 L 62.269531 131.269531 "/>
<path style="fill:none;stroke-width:1.2;stroke-linecap:butt;stroke-linejoin:miter;stroke:rgb(0%,0%,0%);stroke-opacity:1;stroke-miterlimit:10;" d="M 62.269531 131.269531 L 61.464844 140.050781 "/>
<path style="fill:none;stroke-width:1.2;stroke-linecap:butt;stroke-linejoin:miter;stroke:rgb(0%,0%,100%);stroke-opacity:1;stroke-miterlimit:10;" d="M 44.269531 143.949219 L 39.761719 136.375 "/>
<path style="fill:none;stroke-width:1.2;stroke-linecap:butt;stroke-linejoin:miter;stroke:rgb(0%,0%,0%);stroke-opacity:1;stroke-miterlimit:10;" d="M 39.761719 136.375 L 35.25 128.800781 "/>
<path style=" stroke:none;fill-rule:nonzero;fill:rgb(100%,100%,100%);fill-opacity:1;" d="M 41.269531 138.449219 L 48.269531 138.449219 L 48.269531 149.449219 L 41.269531 149.449219 Z M 41.269531 138.449219 "/>
<g style="fill:rgb(0%,0%,100%);fill-opacity:1;">
  <use xlink:href="#glyph0-2" x="41.269531" y="147.112305"/>
</g>
<path style="fill:none;stroke-width:1.2;stroke-linecap:butt;stroke-linejoin:miter;stroke:rgb(0%,0%,0%);stroke-opacity:1;stroke-miterlimit:10;" d="M 35.25 128.800781 L 46.871094 115.539062 "/>
<path style="fill:none;stroke-width:1.2;stroke-linecap:butt;stroke-linejoin:miter;stroke:rgb(0%,0%,0%);stroke-opacity:1;stroke-miterlimit:10;" d="M 39.53125 130.207031 L 48.828125 119.597656 "/>
<path style="fill:none;stroke-width:1.2;stroke-linecap:butt;stroke-linejoin:miter;stroke:rgb(0%,0%,0%);stroke-opacity:1;stroke-miterlimit:10;" d="M 46.871094 115.539062 L 54.972656 119.015625 "/>
<path style="fill:none;stroke-width:1.2;stroke-linecap:butt;stroke-linejoin:miter;stroke:rgb(0%,0%,100%);stroke-opacity:1;stroke-miterlimit:10;" d="M 54.972656 119.015625 L 63.070312 122.492188 "/>
<path style="fill:none;stroke-width:1.2;stroke-linecap:butt;stroke-linejoin:miter;stroke:rgb(0%,0%,100%);stroke-opacity:1;stroke-miterlimit:10;" d="M 63.070312 122.492188 L 70.648438 117.980469 "/>
<path style="fill:none;stroke-width:1.2;stroke-linecap:butt;stroke-linejoin:miter;stroke:rgb(0%,0%,0%);stroke-opacity:1;stroke-miterlimit:10;" d="M 70.648438 117.980469 L 78.222656 113.472656 "/>
<path style=" stroke:none;fill-rule:nonzero;fill:rgb(100%,100%,100%);fill-opacity:1;" d="M 60.070312 116.992188 L 67.070312 116.992188 L 67.070312 127.992188 L 60.070312 127.992188 Z M 60.070312 116.992188 "/>
<g style="fill:rgb(0%,0%,100%);fill-opacity:1;">
  <use xlink:href="#glyph0-2" x="60.070312" y="125.655273"/>
</g>
</g>
</svg>

<svg xmlns="http://www.w3.org/2000/svg" xmlns:xlink="http://www.w3.org/1999/xlink" width="300pt" height="300pt" viewBox="0 0 300 300"><defs><symbol overflow="visible"><path d="M.453 1.594v-7.938h4.5v7.938zm.5-.5h3.5v-6.938h-3.5zm0 0"/></symbol><symbol overflow="visible" id="a"><path d="M3.547-5.953c-.65 0-1.164.242-1.547.72-.375.48-.563 1.13-.563 1.952 0 .835.188 1.49.563 1.967.383.48.898.72 1.547.72.644 0 1.156-.24 1.53-.72.376-.476.564-1.132.564-1.968 0-.822-.187-1.474-.562-1.954-.375-.477-.887-.72-1.53-.72zm0-.734c.914 0 1.648.312 2.203.937.55.617.828 1.438.828 2.47 0 1.042-.277 1.87-.828 2.483-.555.617-1.29.922-2.203.922-.93 0-1.668-.305-2.22-.922C.774-1.41.5-2.237.5-3.28c0-1.033.273-1.853.828-2.47.55-.625 1.29-.938 2.22-.938zm0 0"/></symbol><symbol overflow="visible" id="b"><path d="M.89-6.563H2.08l2.906 5.485v-5.484h.86V0H4.656L1.75-5.484V0H.89zm0 0"/></symbol><symbol overflow="visible" id="c"><path d="M.89-6.563h.876v2.688H5v-2.688h.89V0H5v-3.125H1.766V0H.89zm0 0"/></symbol></defs><g><path fill="#fff" d="M0 0h300v300H0z"/><path d="M201.41 140.863l6.63 5.81" stroke-width="1.2" stroke="#f00" stroke-miterlimit="10" fill="none"/><path d="M208.04 146.672l6.628 5.812" stroke-width="1.2" stroke="#000" stroke-miterlimit="10" fill="none"/><path d="M201.41 140.863l-8.347 2.836" stroke-width="1.2" stroke="#f00" stroke-miterlimit="10" fill="none"/><path d="M193.063 143.7l-8.348 2.84" stroke-width="1.2" stroke="#000" stroke-miterlimit="10" fill="none"/><path d="M197.41 135.363h8v11h-8zm0 0" fill="#fff"/><use xlink:href="#a" x="197.41" y="144.026" fill="#f00"/><path d="M214.668 152.484l16.695-5.675M231.363 146.81l6.63 5.807" stroke-width="1.2" stroke="#000" stroke-miterlimit="10" fill="none"/><path d="M237.992 152.617l6.633 5.813" stroke-width="1.2" stroke="#00f" stroke-miterlimit="10" fill="none"/><path d="M235.422 144.852l5.305 4.648" stroke-width="1.2" stroke="#000" stroke-miterlimit="10" fill="none"/><path d="M240.727 149.5l5.304 4.645" stroke-width="1.2" stroke="#00f" stroke-miterlimit="10" fill="none"/><path d="M234.797 129.516l-3.434 17.293" stroke-width="1.2" stroke="#000" stroke-miterlimit="10" fill="none"/><path d="M244.625 158.43l8.348-2.84" stroke-width="1.2" stroke="#00f" stroke-miterlimit="10" fill="none"/><path d="M252.973 155.59l8.343-2.836" stroke-width="1.2" stroke="#000" stroke-miterlimit="10" fill="none"/><path d="M241.625 152.93h7v11h-7zm0 0" fill="#fff"/><use xlink:href="#b" x="241.625" y="161.593" fill="#00f"/><path d="M261.316 152.754l3.434-17.293M257.59 150.22l2.746-13.837M264.75 135.46l-13.262-11.62M251.488 123.84l-16.69 5.676M251.156 128.336l-13.355 4.54M184.715 146.54l-13.262-11.622M180.656 148.496l-10.61-9.297M181.28 163.832l3.435-17.293M171.453 134.918l-16.69 5.676M154.762 140.594l-3.434 17.293M158.488 143.13l-2.746 13.835M151.328 157.887l13.262 11.62M151.328 157.887l-16.69 5.675M164.59 169.508l16.69-5.676M164.922 165.012l13.355-4.54M132.602 163.156l-1.72 8.65" stroke-width="1.2" stroke="#000" stroke-miterlimit="10" fill="none"/><path d="M130.883 171.805l-1.715 8.644" stroke-width="1.2" stroke="#f00" stroke-miterlimit="10" fill="none"/><path d="M136.672 163.965l-1.72 8.648" stroke-width="1.2" stroke="#000" stroke-miterlimit="10" fill="none"/><path d="M134.953 172.613l-1.715 8.645" stroke-width="1.2" stroke="#f00" stroke-miterlimit="10" fill="none"/><path d="M134.637 163.563l-6.633-5.813" stroke-width="1.2" stroke="#000" stroke-miterlimit="10" fill="none"/><path d="M128.004 157.75l-6.63-5.81" stroke-width="1.2" stroke="#00f" stroke-miterlimit="10" fill="none"/><path d="M127.203 175.355h8v11h-8zm0 0" fill="#fff"/><use xlink:href="#a" x="127.203" y="184.019" fill="#f00"/><path d="M121.375 151.94l-8.348 2.837" stroke-width="1.2" stroke="#00f" stroke-miterlimit="10" fill="none"/><path d="M113.027 154.777l-8.347 2.84" stroke-width="1.2" stroke="#000" stroke-miterlimit="10" fill="none"/><path d="M114.375 146.44h14v11h-14zm0 0" fill="#fff"/><g fill="#00f"><use xlink:href="#b" x="114.375" y="155.104"/><use xlink:href="#c" x="121.353" y="155.104"/></g><path d="M104.68 157.617l-13.258-11.62M100.62 159.574l-10.608-9.297M101.25 174.91l3.43-17.293M91.422 145.996l-16.695 5.672M74.727 151.668l-3.434 17.297M78.453 154.207l-2.746 13.836M74.727 151.668L61.465 140.05M71.293 168.965l13.262 11.617M84.555 180.582l16.695-5.672M84.89 176.09l13.352-4.54M101.25 174.91l13.258 11.617M61.465 140.05L52.867 142" stroke-width="1.2" stroke="#000" stroke-miterlimit="10" fill="none"/><path d="M52.867 142l-8.597 1.95" stroke-width="1.2" stroke="#00f" stroke-miterlimit="10" fill="none"/><path d="M58.828 136.395l-6.875 1.558" stroke-width="1.2" stroke="#000" stroke-miterlimit="10" fill="none"/><path d="M51.953 137.953l-6.88 1.56M63.07 122.492l-.8 8.778" stroke-width="1.2" stroke="#00f" stroke-miterlimit="10" fill="none"/><path d="M62.27 131.27l-.805 8.78" stroke-width="1.2" stroke="#000" stroke-miterlimit="10" fill="none"/><path d="M44.27 143.95l-4.508-7.575" stroke-width="1.2" stroke="#00f" stroke-miterlimit="10" fill="none"/><path d="M39.762 136.375L35.25 128.8" stroke-width="1.2" stroke="#000" stroke-miterlimit="10" fill="none"/><path d="M41.27 138.45h7v11h-7zm0 0" fill="#fff"/><use xlink:href="#b" x="41.27" y="147.112" fill="#00f"/><path d="M35.25 128.8l11.62-13.26M39.53 130.207l9.298-10.61M46.87 115.54l8.103 3.476" stroke-width="1.2" stroke="#000" stroke-miterlimit="10" fill="none"/><path d="M54.973 119.016l8.097 3.476M63.07 122.492l7.578-4.512" stroke-width="1.2" stroke="#00f" stroke-miterlimit="10" fill="none"/><path d="M70.648 117.98l7.575-4.507" stroke-width="1.2" stroke="#000" stroke-miterlimit="10" fill="none"/><path d="M60.07 116.992h7v11h-7zm0 0" fill="#fff"/><use xlink:href="#b" x="60.07" y="125.655" fill="#00f"/></g></svg>
